Sources/FrostedUI/Resources/Icons.xcassets/split20.imageset/split-20.svg

<svg width="20" height="20" viewBox="0 0 20 20" fill="none" xmlns="http://www.w3.org/2000/svg" data-fui-icon="true">
  <path
    d="M16.2451 1.19531C16.5515 0.916788 17.026 0.938952 17.3047 1.24512L19.8047 3.99512C20.0647 4.28118 20.0647 4.71882 19.8047 5.00488L17.3047 7.75488C17.026 8.06105 16.5515 8.08321 16.2451 7.80469C15.939 7.52602 15.9168 7.0515 16.1953 6.74512L17.5547 5.25H14.2812C13.6117 5.25012 12.9954 5.61629 12.6748 6.2041L10.6035 10L12.6748 13.7959C12.9954 14.3837 13.6117 14.7499 14.2812 14.75H17.5547L16.1953 13.2549C15.9168 12.9485 15.9389 12.474 16.2451 12.1953C16.5515 11.9168 17.026 11.939 17.3047 12.2451L19.8047 14.9951C20.0647 15.2812 20.0647 15.7188 19.8047 16.0049L17.3047 18.7549C17.026 19.0611 16.5515 19.0832 16.2451 18.8047C15.9389 18.526 15.9168 18.0515 16.1953 17.7451L17.5547 16.25H14.2812C13.0628 16.2499 11.9419 15.5843 11.3584 14.5146L9.30469 10.75H6.91797C6.57452 12.3224 5.17545 13.5 3.5 13.5C1.567 13.5 0 11.933 0 10C2.83472e-06 8.06701 1.56701 6.5 3.5 6.5C5.17545 6.5 6.57452 7.67757 6.91797 9.25H9.30469L11.3584 5.48535C11.9419 4.41574 13.0628 3.75012 14.2812 3.75H17.5547L16.1953 2.25488C15.9168 1.9485 15.9389 1.47398 16.2451 1.19531ZM3.5 8C2.39543 8 1.5 8.89543 1.5 10C1.5 11.1046 2.39543 12 3.5 12C4.60457 12 5.5 11.1046 5.5 10C5.5 8.89543 4.60457 8 3.5 8Z"
    fill="currentColor"
  />
</svg>

<svg xmlns="http://www.w3.org/2000/svg" width="20" height="20" fill="none" data-fui-icon="true" viewBox="0 0 20 20"><path fill="currentColor" d="M16.245 1.195a.75.75 0 0 1 1.06.05l2.5 2.75c.26.286.26.724 0 1.01l-2.5 2.75a.75.75 0 0 1-1.11-1.01l1.36-1.495H14.28a1.83 1.83 0 0 0-1.606.954L10.603 10l2.072 3.796c.32.588.937.954 1.606.954h3.274l-1.36-1.495a.75.75 0 0 1 1.11-1.01l2.5 2.75c.26.286.26.724 0 1.01l-2.5 2.75a.75.75 0 0 1-1.11-1.01l1.36-1.495H14.28a3.33 3.33 0 0 1-2.923-1.735L9.305 10.75H6.918a3.5 3.5 0 1 1 0-1.5h2.387l2.053-3.765a3.33 3.33 0 0 1 2.923-1.735h3.274l-1.36-1.495a.75.75 0 0 1 .05-1.06M3.5 8a2 2 0 1 0 0 4 2 2 0 0 0 0-4"/></svg>
